X: 31199
T: Paddy Fahey's
R: jig
M: 6/8
K: Dmixolydian
DFA d2 e|dcA ~G3|A2 D cBc|edc AB^c|
dFA d2 ^c|dcA ~G3|Ad^c AGE|1 FD^C D2 A:|2 FD^C DFA:|
|:d3 fed|e2 c A3|cBc edc|BdB GAG|
FAd fed|BGG FAD|dDc AGE|1 FD^C DFA:|2 FD^C D2 A:|

